X: 3
T: Rosin The Bow
R: jig
M: 6/8
L: 1/8
K: Amaj
E|A2B cBA|~e3~f2a|ecA ABc|FAF (~F2E)|
A2B cBA|e3f2a|ecA BcB|ABA A3:|
|c|:efe efg|aba agf|ecA ABc|FAF (~F2E)|
|1efe efg|aba agf|ecA BcB|ABA A3c:|
|2A2B cBA|e3f2a|ecA BcB|ABA A3|]


Tune 7639	Setting 7639

